resource/visual/card/item/gear.svg

<?xml version="1.0" encoding="UTF-8" standalone="no"?><svg xmlns="http://www.w3.org/2000/svg" xmlns:cc="http://creativecommons.org/ns#" xmlns:dc="http://purl.org/dc/elements/1.1/" xmlns:osb="http://www.openswatchbook.org/uri/2009/osb" xmlns:rdf="http://www.w3.org/1999/02/22-rdf-syntax-ns#" xmlns:xlink="http://www.w3.org/1999/xlink" clip-rule="evenodd" fill-rule="evenodd" id="svg52" stroke-linecap="round" stroke-linejoin="round" stroke-miterlimit="1.5" version="1.1" viewBox="0 0 733 520" xml:space="preserve"><metadata id="metadata58"><rdf:RDF><cc:Work rdf:about=""><dc:format>image/svg+xml</dc:format><dc:type rdf:resource="http://purl.org/dc/dcmitype/StillImage"/><dc:title/></cc:Work></rdf:RDF></metadata><defs id="defs56"><linearGradient id="linearGradient889" osb:paint="solid"><stop id="stop887" offset="0" stop-color="#fc3500"/></linearGradient><linearGradient id="charters-blue" osb:paint="solid"><stop id="stop882" offset="0" stop-color="#0019fe"/></linearGradient><linearGradient id="charters-orange" osb:paint="solid"><stop id="stop876" offset="0" stop-color="#fe7900"/></linearGradient><linearGradient id="charters-violet" osb:paint="solid"><stop id="stop870" offset="0" stop-color="#8900c8"/></linearGradient><linearGradient id="charters-green" osb:paint="solid"><stop id="stop864" offset="0" stop-color="#00ae06"/></linearGradient><linearGradient id="charters-yellow" osb:paint="solid"><stop id="stop858" offset="0" stop-color="#ece700"/></linearGradient><linearGradient id="charters-red" osb:paint="solid"><stop id="stop852" offset="0" stop-color="#fc0000"/></linearGradient><clipPath id="clipPath2344"><g fill="none" id="g2348" stroke="#0029f1" transform="matrix(1 0 0 1.4784 -1407.7 -1072.4)">
        <path d="m691 63.599c0-12.319-14.786-22.321-33-22.321h-583.73c-18.213 0-33 10.002-33 22.321v44.642c0 12.319 14.787 22.32 33 22.32h583.73c18.214 0 33-10.001 33-22.32z" fill="none" id="path2346" stroke="#0029f1" stroke-width="2.51px"/>
    </g></clipPath><linearGradient gradientUnits="userSpaceOnUse" id="linearGradient2388" x1="39.693" x2="692.59" xlink:href="#charters-red" y1="85.92" y2="85.92"/><clipPath id="clipPath2414"><g id="g2418" transform="matrix(1.8977 0 0 2.5382 -332.92 -340.44)">
        <path d="m517.05 304.62c15.025-13.002 22.935-27.752 22.935-42.766s-7.91-29.764-22.935-42.767h-296.5c-15.024 13.003-22.934 27.753-22.934 42.767s7.91 29.764 22.934 42.766z" fill="#ffffff" id="path2416" stroke="#000000" stroke-width="1.41px"/>
    </g></clipPath><linearGradient gradientUnits="userSpaceOnUse" id="linearGradient2428" x1="520.89" x2="680.01" xlink:href="#charters-red" y1="226.16" y2="226.16"/><linearGradient gradientUnits="userSpaceOnUse" id="linearGradient2477" x1="520.68" x2="680.22" xlink:href="#charters-red" y1="226.16" y2="226.16"/><linearGradient gradientUnits="userSpaceOnUse" id="linearGradient908" x2="732.28" xlink:href="#charters-red" y1="259.84" y2="259.84"/></defs>
    <path d="m732.28 24.584c0-13.568-11.015-24.584-24.584-24.584h-683.12c-13.568 0-24.584 11.016-24.584 24.584v470.52c0 13.568 11.016 24.584 24.584 24.584h683.12c13.569 0 24.584-11.016 24.584-24.584v-470.52z" id="path2"/>
    <g fill="url(#linearGradient908)" id="g6" transform="matrix(.94964 0 0 .92904 18.438 18.438)">
        <path charters-color="0" d="m732.28 24.584c0-13.568-10.776-24.584-24.05-24.584h-684.18c-13.274 0-24.051 11.016-24.051 24.584v470.52c0 13.568 10.777 24.584 24.051 24.584h684.18c13.274 0 24.05-11.016 24.05-24.584z" fill="#0019fe" id="path4"/>
    </g>
    <g id="g10" transform="matrix(1.8977 0 0 3.3675 -333.74 -642.95)">
        <path d="m517.05 304.62c15.025-13.002 22.935-27.752 22.935-42.766s-7.91-29.764-22.935-42.767h-296.5c-15.024 13.003-22.934 27.753-22.934 42.767s7.91 29.764 22.934 42.766h296.5z" id="path8"/>
    </g>
    <g fill="#ffffff" id="g2339" stroke="#000000" transform="matrix(1 0 0 1.4784 -2.2648e-13 286.36)">
        <path d="m691 63.599c0-12.319-14.786-22.321-33-22.321h-583.73c-18.213 0-33 10.002-33 22.321v44.642c0 12.319 14.787 22.32 33 22.32h583.73c18.214 0 33-10.001 33-22.32v-44.642z" fill="#ffffff" id="path2337" stroke="#000000" stroke-width="2.51px"/>
    </g><g clip-path="url(#clipPath2344)" fill="none" id="g2342" opacity=".75" transform="translate(1407.7 1358.8)"><image fill="none" height="1753.3" id="image2334" preserveAspectRatio="none" width="2629.9" x="-2626.6" xlink:href="file:///D:/Projects/Charters-Board-Game/resource/visual/art/template/navigation-background.png" y="-2554.4"/></g><g id="g18" transform="matrix(1.0517 0 0 1.7091 -100.36 67.343)">
        <path d="m678.89 214.32c0-6.539-8.627-11.848-19.254-11.848h-118.38c-10.627 0-19.255 5.309-19.255 11.848v23.696c0 6.539 8.628 11.848 19.255 11.848h118.38c10.627 0 19.254-5.309 19.254-11.848v-23.696z" fill="white" id="path16" stroke="black" stroke-width="2.23px"/>
    </g>
    <g id="g22" transform="matrix(1.0517 0 0 1.7091 -430.36 67.343)">
        <path d="m678.89 214.32c0-6.539-8.627-11.848-19.254-11.848h-118.38c-10.627 0-19.255 5.309-19.255 11.848v23.696c0 6.539 8.628 11.848 19.255 11.848h118.38c10.627 0 19.254-5.309 19.254-11.848v-23.696z" fill="white" id="path20" stroke="black" stroke-width="2.23px"/>
    </g>
    <g fill="#ffffff" id="g26" transform="translate(2.2737e-13 -.27137)">
        <path d="m691 63.599c0-12.319-10.001-22.321-22.32-22.321h-605.09c-12.319 0-22.321 10.002-22.321 22.321v44.642c0 12.319 10.002 22.32 22.321 22.32h605.09c12.319 0 22.32-10.001 22.32-22.32v-44.642z" fill="#ffffff" id="path24" stroke="black" stroke-width="3.17px"/>
    </g>
    <g id="g30" transform="matrix(1.8977 0 0 2.5382 -333.74 -425.78)">
        <path d="m517.05 304.62c15.025-13.002 22.935-27.752 22.935-42.766s-7.91-29.764-22.935-42.767h-296.5c-15.024 13.003-22.934 27.753-22.934 42.767s7.91 29.764 22.934 42.766h296.5z" fill="white" id="path28" stroke="black" stroke-width="1.41px"/>
    </g>
    <g clip-path="url(#clipPath2414)" id="g2412" transform="translate(-.81279 -85.343)"><image height="619" id="art" preserveAspectRatio="none" width="825" x="0" xlink:href="../../art/template/template-art.png" y="0"/></g><g id="g34" transform="matrix(1.3551 0 0 .99712 -447.54 131.24)">
        <path d="m678.89 214.32c0-6.539-3.906-11.848-8.718-11.848h-139.45c-4.812 0-8.719 5.309-8.719 11.848v23.696c0 6.539 3.907 11.848 8.719 11.848h139.45c4.812 0 8.718-5.309 8.718-11.848v-23.696z" fill="white" id="path32" stroke="black" stroke-width="2.66px"/>
    </g>
    <g id="g38" transform="matrix(1.0517 0 0 1.7091 -265.36 67.343)">
        <path d="m678.89 214.32c0-6.539-8.627-11.848-19.254-11.848h-118.38c-10.627 0-19.255 5.309-19.255 11.848v23.696c0 6.539 8.628 11.848 19.255 11.848h118.38c10.627 0 19.254-5.309 19.254-11.848v-23.696z" fill="white" id="path36" stroke="black" stroke-width="2.23px"/>
    </g>
    <g fill="url(#linearGradient2428)" id="g2455" opacity=".5" stroke="#000000" transform="matrix(1.0517 0 0 1.7091 -265.36 67.343)">
        <path charters-color="0" d="m678.89 214.32c0-6.539-8.627-11.848-19.254-11.848h-118.38c-10.627 0-19.255 5.309-19.255 11.848v23.696c0 6.539 8.628 11.848 19.255 11.848h118.38c10.627 0 19.254-5.309 19.254-11.848z" fill="#0019fe" id="path2453" stroke="#000000" stroke-width="2.23px"/>
    </g><g id="g42" transform="matrix(6.281 0 0 2.925 -584.23 -854.99)">
        <ellipse cx="151.31" cy="447.48" fill="white" id="ellipse40" rx="12.418" ry="13.846" stroke="black" stroke-width=".68px"/>
    </g>
    <g fill="url(#linearGradient2428)" id="g2463" opacity=".5" stroke="#000000" transform="matrix(1.0517 0 0 1.7091 -430.36 67.343)">
        <path charters-color="0" d="m678.89 214.32c0-6.539-8.627-11.848-19.254-11.848h-118.38c-10.627 0-19.255 5.309-19.255 11.848v23.696c0 6.539 8.628 11.848 19.255 11.848h118.38c10.627 0 19.254-5.309 19.254-11.848z" fill="#0019fe" id="path2461" stroke="#000000" stroke-width="2.23px"/>
    </g><g id="g46" transform="matrix(6.281 0 0 2.925 -749.23 -854.99)">
        <ellipse cx="151.31" cy="447.48" fill="white" id="ellipse44" rx="12.418" ry="13.846" stroke="black" stroke-width=".68px"/>
    </g>
    <g fill="url(#linearGradient2428)" id="g2422" opacity=".5" stroke="#000000" transform="matrix(1.0517 0 0 1.7091 -100.36 67.343)">
        <path charters-color="0" d="m678.89 214.32c0-6.539-8.627-11.848-19.254-11.848h-118.38c-10.627 0-19.255 5.309-19.255 11.848v23.696c0 6.539 8.628 11.848 19.255 11.848h118.38c10.627 0 19.254-5.309 19.254-11.848z" fill="#0019fe" id="path2420" stroke="#000000" stroke-width="2.23px"/>
    </g><g id="g50" transform="matrix(6.281 0 0 2.925 -419.23 -854.99)">
        <ellipse cx="151.31" cy="447.48" fill="#ffffff" id="ellipse48" rx="12.418" ry="13.846" stroke="black" stroke-miterlimit="1.5" stroke-width=".68009"/>
    </g>
<text fill="#000000" font-family="Consolas" font-size="46.667px" id="type-0" letter-spacing="0px" style="line-height:1.25" text-align="center" text-anchor="middle" word-spacing="0px" x="201.1851" xml:space="preserve" y="468.77731">Mech</text>
<text clip-rule="evenodd" fill="#000000" fill-rule="evenodd" font-family="Consolas" font-size="46.667px" id="type-1" letter-spacing="0px" stroke-linecap="round" stroke-linejoin="round" stroke-miterlimit="1.5" style="line-height:1.25" text-align="center" text-anchor="middle" word-spacing="0px" x="366.18509" xml:space="preserve" y="468.77731"><tspan id="tspan868-6" x="366.18509" y="509.26886"/></text>
<text clip-rule="evenodd" fill="#000000" fill-rule="evenodd" font-family="Consolas" font-size="46.667px" id="type-2" letter-spacing="0px" stroke-linecap="round" stroke-linejoin="round" stroke-miterlimit="1.5" style="line-height:1.25" text-align="center" text-anchor="middle" word-spacing="0px" x="531.18781" xml:space="preserve" y="468.77802"><tspan id="tspan868-7" x="531.18781" y="509.26956"/></text>
<g fill="url(#linearGradient2477)" id="g2471" opacity=".5" stroke="#000000" transform="matrix(1.3551 0 0 .99712 -447.54 131.24)">
        <path charters-color="0" d="m678.89 214.32c0-6.539-3.906-11.848-8.718-11.848h-139.45c-4.812 0-8.719 5.309-8.719 11.848v23.696c0 6.539 3.907 11.848 8.719 11.848h139.45c4.812 0 8.718-5.309 8.718-11.848z" fill="#0019fe" id="path2469" stroke="#000000" stroke-width="2.66px"/>
    </g><text fill="#000000" font-family="Consolas" font-size="40px" id="text900" letter-spacing="0px" style="line-height:1.25" text-align="center" text-anchor="middle" word-spacing="0px" x="365.35818" xml:space="preserve" y="369.52176"><tspan id="tspan898" x="365.35818" y="369.52176">Item</tspan></text>
<g fill="url(#linearGradient2388)" id="g2376" opacity=".5" stroke="#000000" transform="translate(0 -.27137)">
        <path charters-color="0" d="m691 63.599c0-12.319-10.001-22.321-22.32-22.321h-605.09c-12.319 0-22.321 10.002-22.321 22.321v44.642c0 12.319 10.002 22.32 22.321 22.32h605.09c12.319 0 22.32-10.001 22.32-22.32z" fill="#0019fe" id="path2374" stroke="#000000" stroke-width="3.17px"/>
    </g><text fill="#000000" font-family="Consolas" font-size="46.667px" id="name" letter-spacing="0px" style="line-height:1.25" text-align="center" text-anchor="middle" word-spacing="0px" x="367.6796" xml:space="preserve" y="100.53908">Gear</text>
</svg>

<?xml version="1.0" encoding="UTF-8" standalone="no"?><svg xmlns="http://www.w3.org/2000/svg" xmlns:serif="http://www.serif.com/" xmlns:xlink="http://www.w3.org/1999/xlink" contentScriptType="application/ecmascript" contentStyleType="text/css" height="100%" preserveAspectRatio="xMidYMid meet" style="fill-rule:evenodd;clip-rule:evenodd;stroke-linecap:round;stroke-linejoin:round;stroke-miterlimit:1.5;" version="1.1" viewBox="0 0 733 520" width="100%" xml:space="preserve" zoomAndPan="magnify">
    <path d="M732.283,24.584C732.283,11.016 721.268,0 707.699,0L24.584,0C11.016,0 0,11.016 0,24.584L0,495.101C0,508.669 11.016,519.685 24.584,519.685L707.699,519.685C721.268,519.685 732.283,508.669 732.283,495.101L732.283,24.584Z"/>
    <g transform="matrix(0.949642,0,0,0.929041,18.4382,18.4382)">
        <path d="M732.283,24.584C732.283,11.016 721.507,0 708.233,0L24.051,0C10.777,0 0,11.016 0,24.584L0,495.101C0,508.669 10.777,519.685 24.051,519.685L708.233,519.685C721.507,519.685 732.283,508.669 732.283,495.101L732.283,24.584Z" style="fill:white;"/>
    </g>
    <g transform="matrix(1.89773,0,0,3.36751,-333.736,-642.954)">
        <path d="M517.048,304.619C532.073,291.617 539.983,276.867 539.983,261.853C539.983,246.839 532.073,232.089 517.048,219.086L220.546,219.086C205.522,232.089 197.612,246.839 197.612,261.853C197.612,276.867 205.522,291.617 220.546,304.619L517.048,304.619Z"/>
    </g>
    <g transform="matrix(1,0,0,1.47844,-2.26485e-13,286.359)">
        <path d="M691.005,63.599C691.005,51.28 676.219,41.278 658.005,41.278L74.278,41.278C56.065,41.278 41.278,51.28 41.278,63.599L41.278,108.241C41.278,120.56 56.065,130.561 74.278,130.561L658.005,130.561C676.219,130.561 691.005,120.56 691.005,108.241L691.005,63.599Z" style="fill:white;stroke:black;stroke-width:2.51px;"/>
    </g>
    <g transform="matrix(1.05172,0,0,1.70913,-100.362,67.3434)">
        <path d="M678.892,214.316C678.892,207.777 670.265,202.468 659.638,202.468L541.261,202.468C530.634,202.468 522.006,207.777 522.006,214.316L522.006,238.012C522.006,244.551 530.634,249.86 541.261,249.86L659.638,249.86C670.265,249.86 678.892,244.551 678.892,238.012L678.892,214.316Z" style="fill:white;stroke:black;stroke-width:2.23px;"/>
    </g>
    <g transform="matrix(1.05172,0,0,1.70913,-430.362,67.3434)">
        <path d="M678.892,214.316C678.892,207.777 670.265,202.468 659.638,202.468L541.261,202.468C530.634,202.468 522.006,207.777 522.006,214.316L522.006,238.012C522.006,244.551 530.634,249.86 541.261,249.86L659.638,249.86C670.265,249.86 678.892,244.551 678.892,238.012L678.892,214.316Z" style="fill:white;stroke:black;stroke-width:2.23px;"/>
    </g>
    <g transform="matrix(1,0,0,1,2.27374e-13,-0.27137)">
        <path d="M691.005,63.599C691.005,51.28 681.004,41.278 668.685,41.278L63.599,41.278C51.28,41.278 41.278,51.28 41.278,63.599L41.278,108.241C41.278,120.56 51.28,130.561 63.599,130.561L668.685,130.561C681.004,130.561 691.005,120.56 691.005,108.241L691.005,63.599Z" style="fill:white;stroke:black;stroke-width:3.17px;"/>
    </g>
    <g transform="matrix(1.89773,0,0,2.53815,-333.736,-425.784)">
        <path d="M517.048,304.619C532.073,291.617 539.983,276.867 539.983,261.853C539.983,246.839 532.073,232.089 517.048,219.086L220.546,219.086C205.522,232.089 197.612,246.839 197.612,261.853C197.612,276.867 205.522,291.617 220.546,304.619L517.048,304.619Z" style="fill:white;stroke:black;stroke-width:1.41px;"/>
    </g>
    <g transform="matrix(1.35511,0,0,0.997122,-447.535,131.245)">
        <path d="M678.892,214.316C678.892,207.777 674.986,202.468 670.174,202.468L530.725,202.468C525.913,202.468 522.006,207.777 522.006,214.316L522.006,238.012C522.006,244.551 525.913,249.86 530.725,249.86L670.174,249.86C674.986,249.86 678.892,244.551 678.892,238.012L678.892,214.316Z" style="fill:white;stroke:black;stroke-width:2.66px;"/>
    </g>
    <g transform="matrix(1.05172,0,0,1.70913,-265.362,67.3434)">
        <path d="M678.892,214.316C678.892,207.777 670.265,202.468 659.638,202.468L541.261,202.468C530.634,202.468 522.006,207.777 522.006,214.316L522.006,238.012C522.006,244.551 530.634,249.86 541.261,249.86L659.638,249.86C670.265,249.86 678.892,244.551 678.892,238.012L678.892,214.316Z" style="fill:white;stroke:black;stroke-width:2.23px;"/>
    </g>
    <g transform="matrix(6.28095,0,0,2.92499,-584.231,-854.994)">
        <ellipse cx="151.31" cy="447.482" rx="12.418" ry="13.846" style="fill:white;stroke:black;stroke-width:0.68px;"/>
    </g>
    <g transform="matrix(6.28095,0,0,2.92499,-749.231,-854.994)">
        <ellipse cx="151.31" cy="447.482" rx="12.418" ry="13.846" style="fill:white;stroke:black;stroke-width:0.68px;"/>
    </g>
    <g transform="matrix(6.28095,0,0,2.92499,-419.231,-854.994)">
        <ellipse cx="151.31" cy="447.482" rx="12.418" ry="13.846" style="fill:white;stroke:black;stroke-width:0.68px;"/>
    </g>
</svg>
